X: 30182
T: MARCH IN MALVINA
C:
%R: march, reel
B: Elias Howe "The Musician's Companion" Part 3 1844 p.18 #2
S: http://imslp.org/wiki/The_Musician's_Companion_(Howe,_Elias)
S: https://archive.org/stream/firstthirdpartof03howe/#page/66/mode/1up
Z: 2016 John Chambers <jc:trillian.mit.edu>
N: The A in bar 2 may have been a handwritten addition.
N: Added missing bar line between bars 10,11.
M: 2/4
L: 1/8
K: Bb
% - - - - - - - - - - - - - - - - - - - - - - - - -
|:\
B,>C B,/C/D/E/ | FFF[BA] | ABAB | F/G/F/E/ D2 |\
Cc/c/cc | dBBB | Fc/c/ cc | dBB2 ::\
f3b | a.g.g.g | .g.g.b.g | .g.ff2 |
d3f | feed | dccB | BAGF |\
f3.b | .a.g.g.g | .g.g.b.g | .g.ff2 |\
d3f | ff/g/ ee/f/ | dd/e/ cc/d/ | B4 :|
% - - - - - - - - - - - - - - - - - - - - - - - - -


